X:1
T:I Will Sing of Jesus’ Love
T:Franklin Edson Belden, 1886
T:I Will Sing of Jesus’ Love
T:Public Domain
T:Public Domain
C:Franklin Edson Belden, 1886
Z:Public Domain
%%score ( 1 2 ) ( 3 4 )
L:1/8
M:4/4
K:Bb
V:1 treble 
V:2 treble 
V:3 bass 
V:4 bass 
V:1
 [B,D]>[CE] | (D2 D>D D2) [Fd]2 | [Fd]2 [Ec]2 [DB]2 [A,C]>[B,D] | (C2 C>C C2) [EG]2 | %4
w: 1.~I will|sing * * * of|sus’ love, Sing of Him|Who * * * first|
w: 2.~O the|depths * * * of|di- vine! Earth or Heav’n|can * * * nev-|
w: 3.~No- thing|good * * * for|I’ve done; How could He|such * * * love|
 [EG]2 [DF]2 [B,D]2 [B,D]>[CE] | (D2 D>D D2) [F_Ad]2 | [Gd]2 [Gc]2 [Ge]2 [G-d]>[Gc] | %7
w: me; For He left bright|worlds * * * a-|And died on Cal- *|
w: know How that sins as|dark * * * as|Can~be made as white *|
w: stow? Lord, I own my|heart * * * is|Help~me now my love *|
 [FB]3 [DB] [Ec]2 [EA]2 | [DB]6 ||"^Refrain" [_AB]>[AB] | [GB]6 ([FA][EG]) | %11
w: va- ry. I will|sing|of Je-|sus’ love, *|
w: as snow. * *||||
w: to show. * *||||
 [DF]2 [DB]2 [Fd]2 [FB]>[Fc] | [Fd]6 ([Ge][Fd]) | [Fd]2 [Fc]2 [Fc]2 [Fd]>[Ec] | (D2 G4) [^FA]2 | %15
w: End- less praise my heart|shall give; *|He has died that I|might * live—|
w: ||||
w: ||||
 [^FA]2 G2 [EG]2 [GB]>[Gc] | [Fd]3 [FB] [Fc]3 [FA] | [FB]6 |] %18
w: will sing His love for|||
w: |||
w: |||
V:2
 x2 | F6 x2 | x8 | E6 x2 | x8 | F6 x2 | x8 | x8 | x6 || x2 | x8 | x8 | x8 | x8 | B6 x2 | x2 G2 x4 | %16
w: |Je-||loved||bove,|||||||||I|me.|
w: |love||er||mine|||||||||||
w: |Him||be-||won,|||||||||||
 x8 | x6 |] %18
w: ||
w: ||
w: ||
V:3
 [B,,F,]>[B,,F,] | B,2 B,>B, B,2 [B,,B,]2 | [F,B,]2 F,2 [B,,F,]2 F,>F, | A,2 A,>A, A,2 [F,A,]2 | %4
w: ~ ~|~ I will sing ~|~ ~ ~ ~ ~|of Him ~ ~ ~|
 [B,,B,]2 [B,,B,]2 [B,,F,]2 [B,,F,]>[B,,F,] | B,2 B,>B, B,2 [B,,B,]2 | %6
w: ~ ~ ~ for He|left ~ ~ ~ ~|
 [E,B,]2 [E,B,]2 [E,B,]2 [E,-B,]>[E,E] | [F,D]3 [F,B,] [F,A,]2 [F,C]2 | [B,,B,]6 || [B,,D]>[B,,D] | %10
w: ~ ~ ~ ~ *|~ ~ ~ ~|I|will sing|
 [E,E]2 [E,E]>[E,E] [E,E]2 [E,B,]2 | [B,,B,]2 [B,,F,]2 [B,,B,]2 [D,B,]>[F,A,] | %12
w: ~ ~ ~ ~ ~|~ ~ end- less praise|
 B,2 [B,,B,]>[B,,B,] [B,,B,]2 [B,,B,]2 | [F,B,]2 [F,A,]2 [F,A,]2 [F,B,]>[F,A,] | %14
w: ~ ~ ~ ~ ~|~ He has died *|
 [G,B,]2 [G,D]>[G,D] [D,D]2 [D,C]2 | [E,C]2 [E,B,]2 [E,B,]2 [E,B,]>[=E,B,] | %16
w: ||
 [F,B,]3 [F,D] [F,E]3 [F,C] | [B,,D]6 |] %18
w: ||
V:4
 x2 | B,,6 x2 | x2 F,2 x4 | F,6 x2 | x8 | B,,6 x2 | x8 | x8 | x6 || x2 | x8 | x8 | B,2 x6 | x8 | %14
w: |~|sing|~||~|||||||~||
 x8 | x8 | x8 | x6 |] %18
w: ||||

